ddp-workspace/projects/ddp-osteo/src/assets/images/clipboard.svg

<?xml version="1.0" encoding="UTF-8"?>
<svg width="87px" height="121px" viewBox="0 0 87 121" version="1.1" xmlns="http://www.w3.org/2000/svg" xmlns:xlink="http://www.w3.org/1999/xlink">
    <!-- Generator: sketchtool 55.2 (78181) - https://sketchapp.com -->
    <title>BBB883B4-4693-45C1-92A5-A3AB5C2A463E@1x</title>
    <desc>Created with sketchtool.</desc>
    <g id="Landing-Page" stroke="none" stroke-width="1" fill="none" fill-rule="evenodd">
        <g id="0---Landing-Page" transform="translate(-281.000000, -1178.000000)">
            <g id="Clipboard" transform="translate(258.000000, 1172.000000)">
                <g>
                    <g id="Group-20">
                        <path d="M107.671875,18 L98.2395312,18 C97.6232812,14.9613333 94.9404688,12.6666667 91.734375,12.6666667 L82.4375,12.6666667 L82.4375,7.33333333 C82.4375,6.59733333 81.8438281,6 81.109375,6 L51.890625,6 C51.1561719,6 50.5625,6.59733333 50.5625,7.33333333 L50.5625,12.6666667 L41.265625,12.6666667 C38.0595312,12.6666667 35.3753906,14.9613333 34.7604688,18 L25.328125,18 C24.5936719,18 24,18.5973333 24,19.3333333 L24,124.666667 C24,125.404 24.5936719,126 25.328125,126 L107.671875,126 C108.406328,126 109,125.404 109,124.666667 L109,19.3333333 C109,18.5973333 108.406328,18 107.671875,18 Z" id="Path" fill="#00D39D" opacity="0.4"></path>
                        <path d="M107.671875,18 L98.2395312,18 C97.6232812,14.9613333 94.9404688,12.6666667 91.734375,12.6666667 L82.4375,12.6666667 L82.4375,7.33333333 C82.4375,6.59733333 81.8438281,6 81.109375,6 L51.890625,6 C51.1561719,6 50.5625,6.59733333 50.5625,7.33333333 L50.5625,12.6666667 L41.265625,12.6666667 C38.0595312,12.6666667 35.3753906,14.9613333 34.7604688,18 L25.328125,18 C24.5936719,18 24,18.5973333 24,19.3333333 L24,124.666667 C24,125.404 24.5936719,126 25.328125,126 L107.671875,126 C108.406328,126 109,125.404 109,124.666667 L109,19.3333333 C109,18.5973333 108.406328,18 107.671875,18 Z" id="Path" fill="#7154FF" opacity="0.4"></path>
                        <rect id="Rectangle" fill="#FFFFFF" x="33" y="24" width="67" height="93"></rect>
                        <rect id="Rectangle" fill-opacity="0.7" fill="#FFDF03" x="33" y="24" width="67" height="93"></rect>
                        <g id="noun_medical-record_172390">
                            <rect id="Rectangle" x="0" y="0" width="133" height="133"></rect>
                            <g id="Group" transform="translate(23.940000, 6.650000)">
                                <path d="M83.79,11.97 L74.34434,11.97 C73.72722,8.93893 71.04062,6.65 67.83,6.65 L58.52,6.65 L58.52,1.33 C58.52,0.59584 57.92549,0 57.19,0 L27.93,0 C27.19451,0 26.6,0.59584 26.6,1.33 L26.6,6.65 L17.29,6.65 C14.07938,6.65 11.39145,8.93893 10.77566,11.97 L1.33,11.97 C0.59451,11.97 0,12.56584 0,13.3 L0,118.37 C0,119.10549 0.59451,119.7 1.33,119.7 L83.79,119.7 C84.52549,119.7 85.12,119.10549 85.12,118.37 L85.12,13.3 C85.12,12.56584 84.52549,11.97 83.79,11.97 Z M82.46,112.49938 L77.91938,117.04 L73.70062,117.04 L78.07898,112.66031 C78.08031,112.66031 78.08031,112.66031 78.08164,112.65898 L82.46,108.28062 L82.46,112.49938 Z M67.05062,117.04 L71.04062,113.05 L73.92938,113.05 L69.93938,117.04 L67.05062,117.04 Z M59.07062,117.04 L63.06062,113.05 L67.27938,113.05 L63.28938,117.04 L59.07062,117.04 Z M51.09062,117.04 L55.08062,113.05 L59.29938,113.05 L55.30938,117.04 L51.09062,117.04 Z M43.11062,117.04 L47.10062,113.05 L51.31938,113.05 L47.32938,117.04 L43.11062,117.04 Z M35.13062,117.04 L39.12062,113.05 L43.33938,113.05 L39.34938,117.04 L35.13062,117.04 Z M27.15062,117.04 L31.14062,113.05 L35.35938,113.05 L31.36938,117.04 L27.15062,117.04 Z M19.17062,117.04 L23.16062,113.05 L27.37938,113.05 L23.38938,117.04 L19.17062,117.04 Z M11.19062,117.04 L15.18062,113.05 L19.39938,113.05 L15.40938,117.04 L11.19062,117.04 Z M3.21062,117.04 L7.3682,112.88242 C7.5544,112.97951 7.75523,113.05 7.98,113.05 L11.41938,113.05 L7.42938,117.04 L3.21062,117.04 Z M2.66,21.83062 L9.86062,14.63 L10.77433,14.63 C10.77433,14.63133 10.77566,14.63266 10.77566,14.63266 C10.78098,14.65793 10.79162,14.67921 10.79694,14.70315 C10.88073,15.08486 10.99511,15.4546 11.14141,15.80971 C11.19328,15.93739 11.2651,16.05443 11.32495,16.17812 C11.44199,16.42018 11.56302,16.65825 11.70799,16.88302 C11.79178,17.01602 11.8902,17.13705 11.98463,17.2634 C11.99128,17.27138 11.9966,17.28069 12.00325,17.29 L7.98,17.29 C7.24451,17.29 6.65,17.88584 6.65,18.62 L6.65,22.05938 L2.66,26.04938 L2.66,21.83062 Z M73.41334,16.88435 C73.55831,16.65958 73.67934,16.42151 73.79638,16.17945 C73.85623,16.05576 73.92805,15.93872 73.97992,15.81104 C74.12489,15.45593 74.2406,15.08619 74.32439,14.70448 C74.32971,14.67921 74.34035,14.65793 74.34567,14.63399 C74.34567,14.63399 74.347,14.63266 74.347,14.63133 L76.59071,14.63133 L73.93071,17.29133 L73.12074,17.29133 C73.12739,17.28335 73.13271,17.27404 73.13936,17.26473 C73.23246,17.13838 73.32955,17.01602 73.41334,16.88435 Z M75.81,19.95 L75.81,110.39 L9.31,110.39 L9.31,19.95 L17.29,19.95 L67.83,19.95 L75.81,19.95 Z M2.66,29.81062 L6.65,25.82062 L6.65,30.03938 L2.66,34.02938 L2.66,29.81062 Z M2.66,37.79062 L6.65,33.80062 L6.65,38.01938 L2.66,42.00938 L2.66,37.79062 Z M2.66,45.77062 L6.65,41.78062 L6.65,45.99938 L2.66,49.98938 L2.66,45.77062 Z M2.66,53.75062 L6.65,49.76062 L6.65,53.97938 L2.66,57.96938 L2.66,53.75062 Z M2.66,61.73062 L6.65,57.74062 L6.65,61.95938 L2.66,65.94938 L2.66,61.73062 Z M2.66,69.71062 L6.65,65.72062 L6.65,69.93938 L2.66,73.92938 L2.66,69.71062 Z M2.66,77.69062 L6.65,73.70062 L6.65,77.91938 L2.66,81.90938 L2.66,77.69062 Z M2.66,85.67062 L6.65,81.68062 L6.65,85.89938 L2.66,89.88938 L2.66,85.67062 Z M2.66,93.65062 L6.65,89.66062 L6.65,93.87938 L2.66,97.86938 L2.66,93.65062 Z M2.66,101.63062 L6.65,97.64062 L6.65,101.85938 L2.66,105.84938 L2.66,101.63062 Z M2.66,109.61062 L6.65,105.62062 L6.65,109.83938 L2.66,113.82938 L2.66,109.61062 Z M82.46,104.51938 L78.47,108.50938 L78.47,104.29062 L82.46,100.30062 L82.46,104.51938 Z M82.46,96.53938 L78.47,100.52938 L78.47,96.31062 L82.46,92.32062 L82.46,96.53938 Z M82.46,88.55938 L78.47,92.54938 L78.47,88.33062 L82.46,84.34062 L82.46,88.55938 Z M82.46,80.57938 L78.47,84.56938 L78.47,80.35062 L82.46,76.36062 L82.46,80.57938 Z M82.46,72.59938 L78.47,76.58938 L78.47,72.37062 L82.46,68.38062 L82.46,72.59938 Z M82.46,64.61938 L78.47,68.60938 L78.47,64.39062 L82.46,60.40062 L82.46,64.61938 Z M82.46,56.63938 L78.47,60.62938 L78.47,56.41062 L82.46,52.42062 L82.46,56.63938 Z M82.46,48.65938 L78.47,52.64938 L78.47,48.43062 L82.46,44.44062 L82.46,48.65938 Z M82.46,40.67938 L78.47,44.66938 L78.47,40.45062 L82.46,36.46062 L82.46,40.67938 Z M82.46,32.69938 L78.47,36.68938 L78.47,32.47062 L82.46,28.48062 L82.46,32.69938 Z M82.46,24.71938 L78.47,28.70938 L78.47,24.49062 L82.46,20.50062 L82.46,24.71938 Z M82.46,16.73938 L78.47,20.72938 L78.47,18.62 C78.47,18.0481 78.10558,17.5693 77.59885,17.38177 L80.35062,14.63 L82.46,14.63 L82.46,16.73938 Z M17.29,9.31 L27.93,9.31 C28.66549,9.31 29.26,8.71416 29.26,7.98 L29.26,2.66 L55.86,2.66 L55.86,7.98 C55.86,8.71416 56.45451,9.31 57.19,9.31 L67.83,9.31 C70.02982,9.31 71.82,11.10018 71.82,13.3 C71.82,15.49982 70.02982,17.29 67.83,17.29 L17.29,17.29 C15.09018,17.29 13.3,15.49982 13.3,13.3 C13.3,11.10018 15.09018,9.31 17.29,9.31 Z M6.09938,14.63 L2.66,18.06938 L2.66,14.63 L6.09938,14.63 Z M81.68062,117.04 L82.46,116.26062 L82.46,117.04 L81.68062,117.04 Z" id="Shape" fill="#000000" fill-rule="nonzero"></path>
                                <path d="M42.56,14.63 C45.49398,14.63 47.88,12.24398 47.88,9.31 C47.88,6.37602 45.49398,3.99 42.56,3.99 C39.62602,3.99 37.24,6.37602 37.24,9.31 C37.24,12.24398 39.62602,14.63 42.56,14.63 Z M42.56,6.65 C44.02699,6.65 45.22,7.84301 45.22,9.31 C45.22,10.77699 44.02699,11.97 42.56,11.97 C41.09301,11.97 39.9,10.77699 39.9,9.31 C39.9,7.84301 41.09301,6.65 42.56,6.65 Z" id="Shape" fill="#000000" fill-rule="nonzero"></path>
                                <path d="M26.6,42.56 C30.26681,42.56 33.25,39.57681 33.25,35.91 C33.25,32.24319 30.26681,29.26 26.6,29.26 C22.93319,29.26 19.95,32.24319 19.95,35.91 C19.95,39.57681 22.93319,42.56 26.6,42.56 Z M26.6,31.92 C28.79982,31.92 30.59,33.71018 30.59,35.91 C30.59,38.10982 28.79982,39.9 26.6,39.9 C24.40018,39.9 22.61,38.10982 22.61,35.91 C22.61,33.71018 24.40018,31.92 26.6,31.92 Z" id="Shape" fill="#000000" fill-rule="nonzero"></path>
                                <path d="M15.96,57.19 L37.24,57.19 C37.24931,57.19133 37.25995,57.19 37.2666,57.19 C38.00209,57.19 38.5966,56.59416 38.5966,55.86 C38.5966,55.76291 38.58729,55.66848 38.56734,55.57804 C38.41705,49.10759 33.10636,43.89 26.6,43.89 C19.99921,43.89 14.63,49.26054 14.63,55.86 C14.63,56.59416 15.22451,57.19 15.96,57.19 Z" id="Path" fill="#F57437"></path>
                                <path d="M15.96,57.19 L37.24,57.19 C37.24931,57.19133 37.25995,57.19 37.2666,57.19 C38.00209,57.19 38.5966,56.59416 38.5966,55.86 C38.5966,55.76291 38.58729,55.66848 38.56734,55.57804 C38.41705,49.10759 33.10636,43.89 26.6,43.89 C19.99921,43.89 14.63,49.26054 14.63,55.86 C14.63,56.59416 15.22451,57.19 15.96,57.19 Z M26.6,46.55 C31.28293,46.55 35.16786,50.02396 35.81557,54.53 L17.38443,54.53 C18.03214,50.02396 21.91707,46.55 26.6,46.55 Z" id="Shape" fill="#000000" fill-rule="nonzero"></path>
                                <path d="M43.89,43.89 L66.5,43.89 C67.23549,43.89 67.83,43.29416 67.83,42.56 C67.83,41.82584 67.23549,41.23 66.5,41.23 L43.89,41.23 C43.15451,41.23 42.56,41.82584 42.56,42.56 C42.56,43.29416 43.15451,43.89 43.89,43.89 Z" id="Path" fill="#000000" fill-rule="nonzero"></path>
                                <path d="M43.89,57.19 L66.5,57.19 C67.23549,57.19 67.83,56.59416 67.83,55.86 C67.83,55.12584 67.23549,54.53 66.5,54.53 L43.89,54.53 C43.15451,54.53 42.56,55.12584 42.56,55.86 C42.56,56.59416 43.15451,57.19 43.89,57.19 Z" id="Path" fill="#000000" fill-rule="nonzero"></path>
                                <path d="M66.5,67.83 L17.29,67.83 C16.55451,67.83 15.96,68.42451 15.96,69.16 C15.96,69.89549 16.55451,70.49 17.29,70.49 L66.5,70.49 C67.23549,70.49 67.83,69.89549 67.83,69.16 C67.83,68.42451 67.23549,67.83 66.5,67.83 Z" id="Path" fill="#000000" fill-rule="nonzero"></path>
                                <path d="M66.5,81.13 L17.29,81.13 C16.55451,81.13 15.96,81.72451 15.96,82.46 C15.96,83.19549 16.55451,83.79 17.29,83.79 L66.5,83.79 C67.23549,83.79 67.83,83.19549 67.83,82.46 C67.83,81.72451 67.23549,81.13 66.5,81.13 Z" id="Path" fill="#000000" fill-rule="nonzero"></path>
                                <path d="M43.89,94.43 L17.29,94.43 C16.55451,94.43 15.96,95.02451 15.96,95.76 C15.96,96.49549 16.55451,97.09 17.29,97.09 L43.89,97.09 C44.62549,97.09 45.22,96.49549 45.22,95.76 C45.22,95.02451 44.62549,94.43 43.89,94.43 Z" id="Path" fill="#000000" fill-rule="nonzero"></path>
                            </g>
                        </g>
                    </g>
                    <path d="M50.54,38.57 C52.73982,38.57 54.53,40.36018 54.53,42.56 C54.53,44.75982 52.73982,46.55 50.54,46.55 C48.34018,46.55 46.55,44.75982 46.55,42.56 C46.55,40.36018 48.34018,38.57 50.54,38.57 Z" id="Path" fill="#FFFFFF"></path>
                </g>
            </g>
        </g>
    </g>
</svg>

<?xml version="1.0" encoding="UTF-8" standalone="no"?>
<svg xmlns="http://www.w3.org/2000/svg" height="121px" width="87px" version="1.1" xmlns:xlink="http://www.w3.org/1999/xlink" viewBox="0 0 87 121">
 <title>BBB883B4-4693-45C1-92A5-A3AB5C2A463E@1x</title>
 <desc>Created with sketchtool.</desc>
 <g id="Landing-Page" fill-rule="evenodd" fill="none">
  <g id="0---Landing-Page" transform="translate(-281 -1178)">
   <g id="Clipboard" transform="translate(258 1172)">
    <g id="Group-20">
     <path id="Path" opacity=".4" fill="#00D39D" d="m107.67 18h-9.43c-0.617-3.039-3.3-5.333-6.506-5.333h-9.296v-5.3337c0-0.736-0.594-1.3333-1.329-1.3333h-29.218c-0.735 0-1.329 0.5973-1.329 1.3333v5.3337h-9.296c-3.206 0-5.891 2.294-6.506 5.333h-9.432c-0.734 0-1.328 0.597-1.328 1.333v105.34c0 0.73 0.594 1.33 1.328 1.33h82.342c0.74 0 1.33-0.6 1.33-1.33v-105.34c0-0.733-0.59-1.33-1.33-1.33z"/>
     <path id="Path" opacity=".4" fill="#7154FF" d="m107.67 18h-9.43c-0.617-3.039-3.3-5.333-6.506-5.333h-9.296v-5.3337c0-0.736-0.594-1.3333-1.329-1.3333h-29.218c-0.735 0-1.329 0.5973-1.329 1.3333v5.3337h-9.296c-3.206 0-5.891 2.294-6.506 5.333h-9.432c-0.734 0-1.328 0.597-1.328 1.333v105.34c0 0.73 0.594 1.33 1.328 1.33h82.342c0.74 0 1.33-0.6 1.33-1.33v-105.34c0-0.733-0.59-1.33-1.33-1.33z"/>
     <rect id="Rectangle" height="93" width="67" y="24" x="33" fill="#fff"/>
     <rect id="Rectangle" fill-opacity=".7" height="93" width="67" y="24" x="33" fill="#FFDF03"/>
     <g id="noun_medical-record_172390">
      <rect id="Rectangle" y="0" x="0" height="133" width="133"/>
      <g id="Group" transform="translate(23.94 6.65)">
       <path id="Shape" fill-rule="nonzero" fill="#000" d="m83.79 11.97h-9.446c-0.617-3.0311-3.303-5.32-6.514-5.32h-9.31v-5.32c0-0.73416-0.595-1.33-1.33-1.33h-29.26c-0.735 0-1.33 0.59584-1.33 1.33v5.32h-9.31c-3.211 0-5.899 2.2889-6.514 5.32h-9.446c-0.73549 0-1.33 0.596-1.33 1.33v105.07c0 0.74 0.59451 1.33 1.33 1.33h82.46c0.735 0 1.33-0.59 1.33-1.33v-105.07c0-0.734-0.595-1.33-1.33-1.33zm-1.33 100.53l-4.541 4.54h-4.218l4.378-4.38h0.003l4.378-4.38v4.22zm-15.409 4.54l3.99-3.99h2.888l-3.99 3.99h-2.888zm-7.98 0l3.99-3.99h4.218l-3.99 3.99h-4.218zm-7.98 0l3.99-3.99h4.218l-3.99 3.99h-4.218zm-7.98 0l3.99-3.99h4.218l-3.99 3.99h-4.218zm-7.98 0l3.99-3.99h4.218l-3.99 3.99h-4.218zm-7.98 0l3.99-3.99h4.218l-3.99 3.99h-4.218zm-7.98 0l3.99-3.99h4.218l-3.99 3.99h-4.218zm-7.98 0l3.99-3.99h4.218l-3.99 3.99h-4.218zm-7.9804 0l4.1576-4.16c0.1862 0.1 0.387 0.17 0.6118 0.17h3.439l-3.9896 3.99h-4.2188zm-0.5506-95.209l7.2006-7.201h0.9134c0 0.001 0.002 0.003 0.002 0.003 0.005 0.025 0.016 0.046 0.021 0.07 0.084 0.382 0.198 0.752 0.344 1.107 0.052 0.127 0.124 0.244 0.184 0.368 0.117 0.242 0.238 0.48 0.383 0.705 0.084 0.133 0.182 0.254 0.277 0.38 0.006 0.008 0.012 0.018 0.018 0.027h-4.023c-0.7355 0-1.33 0.596-1.33 1.33v3.439l-3.99 3.99v-4.218zm70.753-4.947c0.145-0.224 0.266-0.462 0.383-0.705 0.06-0.123 0.132-0.24 0.184-0.368 0.145-0.355 0.261-0.725 0.344-1.107 0.006-0.025 0.016-0.046 0.022-0.07 0 0 0.001-0.001 0.001-0.003h2.244l-2.66 2.66h-0.81c0.006-0.008 0.012-0.017 0.018-0.026 0.093-0.127 0.191-0.249 0.274-0.381zm2.397 3.066v90.44h-66.5v-90.44h7.98 50.54 7.98zm-73.15 9.861l3.99-3.99v4.218l-3.99 3.99v-4.218zm0 7.98l3.99-3.99v4.218l-3.99 3.99v-4.218zm0 7.98l3.99-3.99v4.218l-3.99 3.99v-4.218zm0 7.98l3.99-3.99v4.218l-3.99 3.99v-4.218zm0 7.98l3.99-3.99v4.218l-3.99 3.99v-4.218zm0 7.98l3.99-3.99v4.218l-3.99 3.99v-4.218zm0 7.98l3.99-3.99v4.218l-3.99 3.99v-4.218zm0 7.98l3.99-3.99v4.218l-3.99 3.99v-4.218zm0 7.98l3.99-3.99v4.218l-3.99 3.99v-4.218zm0 7.979l3.99-3.989v4.219l-3.99 3.99v-4.22zm0 7.98l3.99-3.99v4.22l-3.99 3.99v-4.22zm79.8-5.09l-3.99 3.99v-4.22l3.99-3.99v4.22zm0-7.981l-3.99 3.991v-4.219l3.99-3.99v4.218zm0-7.98l-3.99 3.99v-4.218l3.99-3.99v4.218zm0-7.98l-3.99 3.99v-4.218l3.99-3.99v4.218zm0-7.98l-3.99 3.99v-4.218l3.99-3.99v4.218zm0-7.98l-3.99 3.99v-4.218l3.99-3.99v4.218zm0-7.98l-3.99 3.99v-4.218l3.99-3.99v4.218zm0-7.98l-3.99 3.99v-4.218l3.99-3.99v4.218zm0-7.98l-3.99 3.99v-4.218l3.99-3.99v4.218zm0-7.98l-3.99 3.99v-4.218l3.99-3.99v4.218zm0-7.98l-3.99 3.99v-4.218l3.99-3.99v4.218zm0-7.98l-3.99 3.99v-2.109c0-0.572-0.364-1.051-0.871-1.238l2.752-2.752h2.109v2.109zm-65.17-7.429h10.64c0.735 0 1.33-0.5958 1.33-1.33v-5.32h26.6v5.32c0 0.7342 0.595 1.33 1.33 1.33h10.64c2.2 0 3.99 1.79 3.99 3.99s-1.79 3.99-3.99 3.99h-50.54c-2.2 0-3.99-1.79-3.99-3.99s1.79-3.99 3.99-3.99zm-11.191 5.32l-3.4394 3.439v-3.439h3.4394zm75.582 102.41l0.779-0.78v0.78h-0.779z"/>
       <path id="Shape" fill-rule="nonzero" fill="#000" d="m42.56 14.63c2.934 0 5.32-2.386 5.32-5.32s-2.386-5.32-5.32-5.32-5.32 2.386-5.32 5.32 2.386 5.32 5.32 5.32zm0-7.98c1.467 0 2.66 1.193 2.66 2.66s-1.193 2.66-2.66 2.66-2.66-1.193-2.66-2.66 1.193-2.66 2.66-2.66z"/>
       <path id="Shape" fill-rule="nonzero" fill="#000" d="m26.6 42.56c3.667 0 6.65-2.983 6.65-6.65s-2.983-6.65-6.65-6.65-6.65 2.983-6.65 6.65 2.983 6.65 6.65 6.65zm0-10.64c2.2 0 3.99 1.79 3.99 3.99s-1.79 3.99-3.99 3.99-3.99-1.79-3.99-3.99 1.79-3.99 3.99-3.99z"/>
       <path id="Path" fill="#F57437" d="m15.96 57.19h21.28c0.009 0.001 0.02 0 0.027 0 0.735 0 1.33-0.596 1.33-1.33 0-0.097-0.01-0.192-0.03-0.282-0.15-6.47-5.461-11.688-11.967-11.688-6.601 0-11.97 5.371-11.97 11.97 0 0.734 0.595 1.33 1.33 1.33z"/>
       <path id="Shape" fill-rule="nonzero" fill="#000" d="m15.96 57.19h21.28c0.009 0.001 0.02 0 0.027 0 0.735 0 1.33-0.596 1.33-1.33 0-0.097-0.01-0.192-0.03-0.282-0.15-6.47-5.461-11.688-11.967-11.688-6.601 0-11.97 5.371-11.97 11.97 0 0.734 0.595 1.33 1.33 1.33zm10.64-10.64c4.683 0 8.568 3.474 9.216 7.98h-18.432c0.648-4.506 4.533-7.98 9.216-7.98z"/>
       <path id="Path" fill-rule="nonzero" fill="#000" d="m43.89 43.89h22.61c0.735 0 1.33-0.596 1.33-1.33s-0.595-1.33-1.33-1.33h-22.61c-0.735 0-1.33 0.596-1.33 1.33s0.595 1.33 1.33 1.33z"/>
       <path id="Path" fill-rule="nonzero" fill="#000" d="m43.89 57.19h22.61c0.735 0 1.33-0.596 1.33-1.33s-0.595-1.33-1.33-1.33h-22.61c-0.735 0-1.33 0.596-1.33 1.33s0.595 1.33 1.33 1.33z"/>
       <path id="Path" fill-rule="nonzero" fill="#000" d="m66.5 67.83h-49.21c-0.735 0-1.33 0.595-1.33 1.33s0.595 1.33 1.33 1.33h49.21c0.735 0 1.33-0.595 1.33-1.33s-0.595-1.33-1.33-1.33z"/>
       <path id="Path" fill-rule="nonzero" fill="#000" d="m66.5 81.13h-49.21c-0.735 0-1.33 0.595-1.33 1.33s0.595 1.33 1.33 1.33h49.21c0.735 0 1.33-0.595 1.33-1.33s-0.595-1.33-1.33-1.33z"/>
       <path id="Path" fill-rule="nonzero" fill="#000" d="m43.89 94.43h-26.6c-0.735 0-1.33 0.595-1.33 1.33s0.595 1.33 1.33 1.33h26.6c0.735 0 1.33-0.595 1.33-1.33s-0.595-1.33-1.33-1.33z"/>
      </g>
     </g>
    </g>
    <path id="Path" fill="#fff" d="m50.54 38.57c2.2 0 3.99 1.79 3.99 3.99s-1.79 3.99-3.99 3.99-3.99-1.79-3.99-3.99 1.79-3.99 3.99-3.99z"/>
   </g>
  </g>
 </g>
</svg>
